public/avatar/item2/71.svg

<svg xmlns:xlink="http://www.w3.org/1999/xlink" height="99.2" width="82.2" xmlns="http://www.w3.org/2000/svg"><use height="35.2" transform="translate(42.15 47.9)" width="25.4" xlink:href="#a"/><defs><g id="a" fill-rule="evenodd"><path d="m20.55 23.6.5-.65 1.4-2 9.5-14.55q1.85-2.9 3.75-5.25 1.15 1.8.75 3.6-.05 7.2-5.45 13.4l-7.2 7.55-.3.25V26l-.1.2-.05.05-.45.35-1.1.85-.45-.05-.05-.05q-1.2-.8-2.1-1.9l.35-.4 1.15-1.6-.15.15m15.1-20.7-.15-.2q-4.1 7.05-8.85 13.7l-4.9 6.9-.2.2-.4.55-.5.65-1.1.75.7.7.5-.8.85-.85.35-.35q7.9-8.8 13.95-19.1-.2-1-.25-2.15M27 21.35l1.85-1.95q5.6-5.2 6.55-12.45l-3.15 5.5Q30.5 15.4 28.45 18l-7.25 8.95 5.8-5.6" fill="#666" transform="translate(-11.15 -1.15)"/><path d="M35.65 2.9q.05 1.15.25 2.15-6.05 10.3-13.95 19.1l-.35.35-.85.85-.5.8-.7-.7 1.1-.75.5-.65.4-.55.2-.2 4.9-6.9Q31.4 9.75 35.5 2.7l.15.2m-19.5 21.95q-.15-.8 1.15-.95h.25q1.35 1.25-.4 1.9-.4.1-.65-.2l-.35-.75M20.8 32l-.15.05-.1.05-.05.05-.15.05-.25.05q-.65.05-1.05-.7-.35-.6 0-1.3.65-1.45 2.15-1.35 1.75 1.85-.4 3.1m3.1-1.4.05-.45q0-1-.35-1.9-.05-.15.1-.15h.15q1 1.6.8 3.05l-.35 1.2-1.1 1.5q-1.5 1.5-3.55 1.85l-.35-.05q2.5-.35 3.9-2.8l.65-1.8.05-.45m-8.8-.65q.5.95-.55.4-.3-.1 0-.3l.55-.1m-.45 2.55q.05.7-.5.35l-.1-.05.05-.2.55-.25v.15m-2.05 1.6q.2-.35.55-.25.65 1.35-.5.55-.2-.1-.05-.3" fill="#fff" transform="translate(-11.15 -1.15)"/><path d="m23.5 26 .25.35q.6.85.85 1.85 1.3 2.55-.55 5.2-2.95 4.2-7.5 2.4l-.9-.5-.3-.15q-1.2-.6-1.25-1.2l-.05.05-.05.95q-.25.55-.8.75l-1.1.05q-.6-.25-.8-.85-.25-.5 0-1.05.2-.6.75-.85.5-.15 1 0l.1-.15 1-1.15-.65-1.15q-.9-2.05-.05-4 .8-2 2.8-2.85 2.05-.9 4.05-.05l.15.05.1-.05v-.05l.15-.15-1.15 1.6-.35.4q.9 1.1 2.1 1.9l.05.05.45.05 1.1-.85.45-.35.05-.05.1-.2m-4.7-2.5q-1.3-.15-2.5.5-2.95 1.6-2.65 5.05.15 1.1.8 2.05 1.55 1.95 3.45 2.05l1.3.1q1.05-.2 2-.9l1.3-1.25.4-.75.15-.5.05-.15.2-.45-.4-.65h.05q.9.65 1 1.55l-.05.45-.25.8v-.1l-.15.3-.25.5q-.6 1.05-1.6 1.7l-.05.05q-3.2 1.9-6.7.5.9 1.15 2.5 1.5 2.45.55 4.6-.7 1.65-.95 2.35-2.65l.4-1.7-.05-.5-.1-.8-.1-.35v-.05l-.1-.25-.15-.45-.05-.05-.3-.55-.05-.05-.15-.2-.35-.25h-.15l.05-.3q-.85.2-1.4.95L21 27.3h-.05v-.05h-.05L19.4 26l-.5-.5.65-1.45.15-.05v-.1l-.15-.1-.15-.15-.35-.1h-.2l-.05-.05m3.5 4.7-.1-.05h.2l-.1.05m-9.1 5.55-.25-.3q-1.45-.2-1.1 1.2.15.45.55.45 1.05-.1 1.15-.6l-.35-.75m.95-.25h.1l.05-.05.55-.4q.45-.5-.15-1.05-.65.15-.95.85-.6 1.1.4.65m1.45-.5-.8.5q4.2 2.95 7.65-.95l1.2-2.05-.25-.85-.25.8q-.8 2-2.8 2.85-2.05.85-4 .05L15.6 33" fill="#371200" transform="translate(-11.15 -1.15)"/><path d="m27 21.35-5.8 5.6L28.45 18q2.05-2.6 3.8-5.55l3.15-5.5q-.95 7.25-6.55 12.45L27 21.35" fill="#ccc" transform="translate(-11.15 -1.15)"/><path d="M17.4 23.9h-.1q-1.3.15-1.15.95-1.55 1.65.15 4l.05.3q-.45 1.95 1.25 2.9l1.35.3 1.15-.1.25-.05.15-.05.05-.05.1-.05.15-.05 1.7-.9-1.3 1.25q-.95.7-2 .9l-1.3-.1q-1.9-.1-3.45-2.05-.65-.95-.8-2.05-.3-3.45 2.65-5.05 1.2-.65 2.5-.5l-1.4.4m2.15.15-.65 1.45.5.5 1.5 1.25h.05v.05H21l.85.65q.55-.75 1.4-.95l-.05.3h.15l-.2.2-.25.25-.2.25-.3.15h-.2l.1.05h-.15l-.55-.05h-.1l-.15-.05-.5-.15-.05-.05-1.25-.8-.05-.05q-.55-.6-.75-1.35l-.05-.15v-.3q-.05-.8.85-1.2m5.05 5.45.1.8-.15-.75.05-.05m.15 1.3-.4 1.7q-.7 1.7-2.35 2.65-2.15 1.25-4.6.7-1.6-.35-2.5-1.5 3.5 1.4 6.7-.5-.9.7-2 1.05l-2.1.55q-.95.2.2.4 4.5.7 6.55-3.35l.05-.15.35-1.2.05-.2.05-.15m-9.65-.85-.55.1q-.3.2 0 .3 1.05.55.55-.4m-1.9 3.8-.15-.15q-1.05-.1-.8.95.1.35.45.35.7-.1.85-.4-.1.5-1.15.6-.4 0-.55-.45-.35-1.4 1.1-1.2l.25.3m.95-.25q-1 .45-.4-.65.3-.7.95-.85.6.55.15 1.05l-.1-.6-.1.05v-.15l-.55.25-.05.2.1.05-.35.55q-.1.2.15.15l.2-.05" fill="#c47500" transform="translate(-11.15 -1.15)"/><path d="m17.4 23.9 1.4-.4.05.05h.2l.35.1.15.15.15.1v.1l-.15.05q-.9.4-.85 1.2v.3l.05.15q.2.75.75 1.35l.05.05 1.25.8.05.05.5.15.15.05h.1l.55.05h.15l.1-.05.3-.15.2-.25.25-.25.2-.2.35.25.15.2.05.05.3.55.05.05.15.45.1.25v.05l.1.35-.05.05.15.75.05.5-.05.15-.05.2q.2-1.45-.8-3.05h-.15q-.15 0-.1.15.35.9.35 1.9-.1-.9-1-1.55h-.05l.4.65-.2.45-.05.15-.15.5-.4.75-1.7.9q2.15-1.25.4-3.1-1.5-.1-2.15 1.35-.35.7 0 1.3.4.75 1.05.7l-1.15.1-1.35-.3q-1.7-.95-1.25-2.9l-.05-.3q-1.7-2.35-.15-4l.35.75q.25.3.65.2 1.75-.65.4-1.9h-.15m4.2 9.95.05-.05q1-.65 1.6-1.7l.25-.5.15-.3v.1l.25-.8-.05.45-.65 1.8q-1.4 2.45-3.9 2.8l.35.05q2.05-.35 3.55-1.85l1.1-1.5-.05.15q-2.05 4.05-6.55 3.35-1.15-.2-.2-.4l2.1-.55q1.1-.35 2-1.05m-8.05.65q-.15.3-.85.4-.35 0-.45-.35-.25-1.05.8-.95l.15.15.35.75m1.3-1.45-.55.4-.05.05h-.1l-.2.05q-.25.05-.15-.15l.35-.55q.55.35.5-.35l.1-.05.1.6M12.6 34.1q-.15.2.05.3 1.15.8.5-.55-.35-.1-.55.25" fill="#fbb941" transform="translate(-11.15 -1.15)"/></g></defs></svg>

<?xml version="1.0" encoding="UTF-8" standalone="no"?>
<svg xmlns:xlink="http://www.w3.org/1999/xlink" height="99.2px" width="82.2px" xmlns="http://www.w3.org/2000/svg">
  <g transform="matrix(1.0, 0.0, 0.0, 1.0, 31.0, 46.75)">
    <use height="35.2" transform="matrix(1.0, 0.0, 0.0, 1.0, 11.15, 1.15)" width="25.4" xlink:href="#shape0"/>
  </g>
  <defs>
    <g id="shape0" transform="matrix(1.0, 0.0, 0.0, 1.0, -11.15, -1.15)">
      <path d="M20.55 23.6 L21.05 22.95 22.45 20.95 31.95 6.4 Q33.8 3.5 35.7 1.15 36.85 2.95 36.45 4.75 36.4 11.95 31.0 18.15 L23.8 25.7 23.5 25.95 23.5 26.0 23.4 26.2 23.35 26.25 22.9 26.6 21.8 27.45 21.35 27.4 21.3 27.35 Q20.1 26.55 19.2 25.45 L19.55 25.05 20.7 23.45 20.55 23.6 M35.65 2.9 L35.5 2.7 Q31.4 9.75 26.65 16.4 L21.75 23.3 21.55 23.5 21.15 24.05 20.65 24.7 19.55 25.45 20.25 26.15 20.75 25.35 21.6 24.5 21.95 24.15 Q29.85 15.35 35.9 5.05 35.7 4.05 35.65 2.9 M27.0 21.35 L28.85 19.4 Q34.45 14.2 35.4 6.95 L32.25 12.45 Q30.5 15.4 28.45 18.0 L21.2 26.95 27.0 21.35" fill="#666666" fill-rule="evenodd" stroke="none"/>
      <path d="M35.65 2.9 Q35.7 4.05 35.9 5.05 29.85 15.35 21.95 24.15 L21.6 24.5 20.75 25.35 20.25 26.15 19.55 25.45 20.65 24.7 21.15 24.05 21.55 23.5 21.75 23.3 26.65 16.4 Q31.4 9.75 35.5 2.7 L35.65 2.9 M16.15 24.85 Q16.0 24.05 17.3 23.9 L17.4 23.9 17.55 23.9 Q18.9 25.15 17.15 25.8 16.75 25.9 16.5 25.6 L16.15 24.85 M20.8 32.0 L20.65 32.05 20.55 32.1 20.5 32.15 20.35 32.2 20.1 32.25 Q19.45 32.3 19.05 31.55 18.7 30.95 19.05 30.25 19.7 28.8 21.2 28.9 22.95 30.75 20.8 32.0 M23.9 30.6 L23.95 30.15 Q23.95 29.15 23.6 28.25 23.55 28.1 23.7 28.1 L23.85 28.1 Q24.85 29.7 24.65 31.15 L24.3 32.35 23.2 33.85 Q21.7 35.35 19.65 35.7 L19.3 35.65 Q21.8 35.3 23.2 32.85 L23.85 31.05 23.9 30.6 M15.1 29.95 Q15.6 30.9 14.55 30.35 14.25 30.25 14.55 30.05 L15.1 29.95 M14.65 32.5 Q14.7 33.2 14.15 32.85 L14.05 32.8 14.1 32.6 14.65 32.35 14.65 32.5 M12.6 34.1 Q12.8 33.75 13.15 33.85 13.8 35.2 12.65 34.4 12.45 34.3 12.6 34.1" fill="#ffffff" fill-rule="evenodd" stroke="none"/>
      <path d="M23.5 26.0 L23.75 26.35 Q24.35 27.2 24.6 28.2 25.9 30.75 24.05 33.4 21.1 37.6 16.55 35.8 L15.65 35.3 15.35 35.15 Q14.15 34.55 14.1 33.95 L14.05 34.0 14.0 34.95 Q13.75 35.5 13.2 35.7 L12.1 35.75 Q11.5 35.5 11.3 34.9 11.05 34.4 11.3 33.85 11.5 33.25 12.05 33.0 12.55 32.85 13.05 33.0 L13.15 32.85 14.15 31.7 13.5 30.55 Q12.6 28.5 13.45 26.55 14.25 24.55 16.25 23.7 18.3 22.8 20.3 23.65 L20.45 23.7 20.55 23.65 20.55 23.6 20.7 23.45 19.55 25.05 19.2 25.45 Q20.1 26.55 21.3 27.35 L21.35 27.4 21.8 27.45 22.9 26.6 23.35 26.25 23.4 26.2 23.5 26.0 M18.8 23.5 Q17.5 23.35 16.3 24.0 13.35 25.6 13.65 29.05 13.8 30.15 14.45 31.1 16.0 33.05 17.9 33.15 L19.2 33.25 Q20.25 33.05 21.2 32.35 L22.5 31.1 22.9 30.35 23.05 29.85 23.1 29.7 23.3 29.25 22.9 28.6 22.95 28.6 Q23.85 29.25 23.95 30.15 L23.9 30.6 23.65 31.4 23.65 31.3 23.5 31.6 23.25 32.1 Q22.65 33.15 21.65 33.8 L21.6 33.85 Q18.4 35.75 14.9 34.35 15.8 35.5 17.4 35.85 19.85 36.4 22.0 35.15 23.65 34.2 24.35 32.5 L24.75 30.8 24.7 30.3 24.6 29.5 24.5 29.15 24.5 29.1 24.4 28.85 24.25 28.4 24.2 28.35 23.9 27.8 23.85 27.75 23.7 27.55 23.35 27.3 23.2 27.3 23.25 27.0 Q22.4 27.2 21.85 27.95 L21.0 27.3 20.95 27.3 20.95 27.25 20.9 27.25 19.4 26.0 18.9 25.5 19.55 24.05 19.7 24.0 19.7 23.95 19.7 23.9 19.55 23.8 19.4 23.65 19.05 23.55 18.85 23.55 18.8 23.5 M22.3 28.2 L22.2 28.15 22.4 28.15 22.3 28.2 M13.2 33.75 L12.95 33.45 Q11.5 33.25 11.85 34.65 12.0 35.1 12.4 35.1 13.45 35.0 13.55 34.5 L13.2 33.75 M14.15 33.5 L14.25 33.5 14.3 33.45 14.85 33.05 Q15.3 32.55 14.7 32.0 14.05 32.15 13.75 32.85 13.15 33.95 14.15 33.5 M15.6 33.0 L14.8 33.5 Q19.0 36.45 22.45 32.55 L23.65 30.5 23.4 29.65 23.15 30.45 Q22.35 32.45 20.35 33.3 18.3 34.15 16.35 33.35 L15.6 33.0" fill="#371200" fill-rule="evenodd" stroke="none"/>
      <path d="M27.0 21.35 L21.2 26.95 28.45 18.0 Q30.5 15.4 32.25 12.45 L35.4 6.95 Q34.45 14.2 28.85 19.4 L27.0 21.35" fill="#cccccc" fill-rule="evenodd" stroke="none"/>
      <path d="M17.4 23.9 L17.3 23.9 Q16.0 24.05 16.15 24.85 14.6 26.5 16.3 28.85 L16.35 29.15 Q15.9 31.1 17.6 32.05 L18.95 32.35 20.1 32.25 20.35 32.2 20.5 32.15 20.55 32.1 20.65 32.05 20.8 32.0 22.5 31.1 21.2 32.35 Q20.25 33.05 19.2 33.25 L17.9 33.15 Q16.0 33.05 14.45 31.1 13.8 30.15 13.65 29.05 13.35 25.6 16.3 24.0 17.5 23.35 18.8 23.5 L17.4 23.9 M19.55 24.05 L18.9 25.5 19.4 26.0 20.9 27.25 20.95 27.25 20.95 27.3 21.0 27.3 21.85 27.95 Q22.4 27.2 23.25 27.0 L23.2 27.3 23.35 27.3 23.15 27.5 22.9 27.75 22.7 28.0 22.4 28.15 22.2 28.15 22.3 28.2 22.25 28.2 22.15 28.2 21.6 28.15 21.5 28.15 21.35 28.1 20.85 27.95 20.8 27.9 19.55 27.1 19.5 27.05 Q18.95 26.45 18.75 25.7 L18.7 25.55 18.7 25.25 Q18.65 24.45 19.55 24.05 M24.6 29.5 L24.7 30.3 24.55 29.55 24.6 29.5 M24.75 30.8 L24.35 32.5 Q23.65 34.2 22.0 35.15 19.85 36.4 17.4 35.85 15.8 35.5 14.9 34.35 18.4 35.75 21.6 33.85 20.7 34.55 19.6 34.9 L17.5 35.45 Q16.55 35.65 17.7 35.85 22.2 36.55 24.25 32.5 L24.3 32.35 24.65 31.15 24.7 30.95 24.75 30.8 M15.1 29.95 L14.55 30.05 Q14.25 30.25 14.55 30.35 15.6 30.9 15.1 29.95 M13.2 33.75 L13.05 33.6 Q12.0 33.5 12.25 34.55 12.35 34.9 12.7 34.9 13.4 34.8 13.55 34.5 13.45 35.0 12.4 35.1 12.0 35.1 11.85 34.65 11.5 33.25 12.95 33.45 L13.2 33.75 M14.15 33.5 Q13.15 33.95 13.75 32.85 14.05 32.15 14.7 32.0 15.3 32.55 14.85 33.05 L14.75 32.45 14.65 32.5 14.65 32.35 14.1 32.6 14.05 32.8 14.15 32.85 13.8 33.4 Q13.7 33.6 13.95 33.55 L14.15 33.5" fill="#c47500" fill-rule="evenodd" stroke="none"/>
      <path d="M17.4 23.9 L18.8 23.5 18.85 23.55 19.05 23.55 19.4 23.65 19.55 23.8 19.7 23.9 19.7 23.95 19.7 24.0 19.55 24.05 Q18.65 24.45 18.7 25.25 L18.7 25.55 18.75 25.7 Q18.95 26.45 19.5 27.05 L19.55 27.1 20.8 27.9 20.85 27.95 21.35 28.1 21.5 28.15 21.6 28.15 22.15 28.2 22.25 28.2 22.3 28.2 22.4 28.15 22.7 28.0 22.9 27.75 23.15 27.5 23.35 27.3 23.7 27.55 23.85 27.75 23.9 27.8 24.2 28.35 24.25 28.4 24.4 28.85 24.5 29.1 24.5 29.15 24.6 29.5 24.55 29.55 24.7 30.3 24.75 30.8 24.7 30.95 24.65 31.15 Q24.85 29.7 23.85 28.1 L23.7 28.1 Q23.55 28.1 23.6 28.25 23.95 29.15 23.95 30.15 23.85 29.25 22.95 28.6 L22.9 28.6 23.3 29.25 23.1 29.7 23.05 29.85 22.9 30.35 22.5 31.1 20.8 32.0 Q22.95 30.75 21.2 28.9 19.7 28.8 19.05 30.25 18.7 30.95 19.05 31.55 19.45 32.3 20.1 32.25 L18.95 32.35 17.6 32.05 Q15.9 31.1 16.35 29.15 L16.3 28.85 Q14.6 26.5 16.15 24.85 L16.5 25.6 Q16.75 25.9 17.15 25.8 18.9 25.15 17.55 23.9 L17.4 23.9 M21.6 33.85 L21.65 33.8 Q22.65 33.15 23.25 32.1 L23.5 31.6 23.65 31.3 23.65 31.4 23.9 30.6 23.85 31.05 23.2 32.85 Q21.8 35.3 19.3 35.65 L19.65 35.7 Q21.7 35.35 23.2 33.85 L24.3 32.35 24.25 32.5 Q22.2 36.55 17.7 35.85 16.55 35.65 17.5 35.45 L19.6 34.9 Q20.7 34.55 21.6 33.85 M13.55 34.5 Q13.4 34.8 12.7 34.9 12.35 34.9 12.25 34.55 12.0 33.5 13.05 33.6 L13.2 33.75 13.55 34.5 M14.85 33.05 L14.3 33.45 14.25 33.5 14.15 33.5 13.95 33.55 Q13.7 33.6 13.8 33.4 L14.15 32.85 Q14.7 33.2 14.65 32.5 L14.75 32.45 14.85 33.05 M12.6 34.1 Q12.45 34.3 12.65 34.4 13.8 35.2 13.15 33.85 12.8 33.75 12.6 34.1" fill="#fbb941" fill-rule="evenodd" stroke="none"/>
    </g>
  </defs>
</svg>
